TV/Source/VTV4.svg

<svg height="475pt" viewBox="0 0 1439 475" width="1439pt" xmlns="http://www.w3.org/2000/svg"><path d="m25.7 0h165.09c14.09.3 24.83 11.52 31.13 23.14 21.71 38.34 43.51 76.63 65.06 115.06 1.31 2.02 2.3 5.06 5.02 5.41 4.5-1.39 4.95-6.93 7.12-10.46 13.46-24.48 26.95-48.95 40.74-73.25 8.19-14.7 16.39-29.41 25.28-43.71 7.69-10.88 21.47-15.79 34.38-16.19h74.57c19.96 1.03 39.98.16 59.96.62 81.68.2 163.36.59 245.03.42 11.84.68 25.34 1.89 34.07 10.86 27.74 41.98 55.72 83.85 82.49 126.47.8 1.13 1.87 1.44 3.21.92 19.1-32.3 38.53-64.43 57.6-96.77 7.27-11.87 13.5-24.67 23.54-34.55 3.82-3.57 8.44-7.32 14-6.98 14.34-.15 28.68-.22 43.03-.27 15.3-.38 30.65.25 45.93-.72h72.28c8.99.37 19.36 2 25.12 9.72 6.03 8.28 5.14 19.33 2.87 28.77-1.26 4.9-2.8 9.81-5.55 14.1-68.78 120.27-137.42 240.64-206.51 360.73-7.38 12.42-13.89 25.49-23.2 36.63-9.49 11.38-22.35 20.41-37.02 23.43-3.99 1-8.11 1.26-12.19 1.62h-5.06c-15.21-.42-30.84-5.88-41.27-17.3-3.33-3.26-5.57-7.37-7.71-11.44-20.2-36.76-40.5-73.46-60.85-110.14-20.02-35.93-39.85-71.97-60.47-107.56-2.33-3.82-4.35-8.2-8.51-10.36.82 22.58.45 45.19.84 67.78.25 45.69.57 91.38.1 137.07.03 12.13-1.48 24.88-8.31 35.23-6.2 9.84-17.44 15.86-28.92 16.72h-163.11c-4.8-.19-9.51-2.13-12.86-5.59-5.19-5.32-7.73-12.58-9.54-19.63-2.18-8.42-1.91-17.16-1.95-25.78-.3-53.33-.75-106.66-.85-159.99-.02-15.32-.13-30.64.18-45.96.03-3.62.49-7.49-1.44-10.76-3.24 1.24-5.07 4.29-6.75 7.12-38.31 69.3-76.58 138.61-115.32 207.67-8.29 15.48-19.35 29.93-34.18 39.66-11.7 8.41-26.09 12.69-40.41 13.26h-5.59c-15.94-.58-31.39-7.89-42-19.78-4.11-4.47-7.35-9.66-10.15-15.03-75.55-131.79-151.22-263.52-226.65-395.38-4.14-7.17-7.59-15.07-7.97-23.45v-2.22c.54-4.31 2.26-8.57 5.49-11.56 5.43-5.1 13.02-6.85 20.21-7.58" fill="#fff"/><path d="m1658.6523 0c-12.08 1.3866666-22.4793 8.7859637-30.7461 17.279297-10.0266 9.946666-17.4534 22.106459-24.1601 34.453125-57.0533 100.519998-114.9053 200.586778-172.5586 300.773438-5.8133 9.78667-10.9205 20.02708-17.8672 29.09375-12.2 18.42667-10.1875 41.34766-9.8808 62.34766.9333 19.30666-.1197 39.37362 7.3203 57.62695 3.3333 9.94667 11.293 19.69302 22.373 20.67969 15.5733 1.08 31.2145.26541 46.8145.71875 47.1333.17333 94.2651-.2392 141.3984-.50586 9.0267-1.10667 15.6016 8.3062 15.6816 16.51953.36 17.2-.0407 34.42695.1993 51.62695.3466 10.64 2.8393 21.3607 7.9726 30.7207 3.96 6.74667 11.1068 11.76 19.0801 12h137.9082c10.4933-.93333 21.679-3.49356 29.3457-11.24023 4.1333-4.02667 5.9462-9.85354 5.8262-15.54687.08-27.08001.08-54.17391 0-81.25391-.52-3.18667 2.9079-4.99925 5.6679-4.89258 14.0934-.17333 28.1997-.01469 42.293-.05469 4.3333.2 7.9606-2.62567 11.5606-4.65234 10.64-6.53333 20.3586-17.21271 20.5586-30.35938.12-24.89333.0673-49.78635.0273-74.67968-1.0133-13.30667-7.5072-27.7068-20.2539-33.4668-10.44-4.54667-22.1198-2.52008-33.1465-3.08008-6.52-.45333-13.5332.53347-19.5332-2.5332-3.7867-1.86667-5.3324-6.22818-5.0391-10.21484.3334-107.12001.7461-214.23938 1.0528-321.35938-.3867-12.373333-5.7603-25.254037-15.9336-32.7207031-7.6134-5.6266665-17.3059-6.95929691-26.5059-7.2792969zm-23.5937 285.06445c.4603-.00877.8697.09894 1.2344.29883.7293.39979 1.2786 1.16654 1.6894 2.0957.4109.92917.6835 2.02081.8614 3.07227.1777 1.05146.259 2.06145.289 2.82813.0267 24.43999-.2135 48.87997-.5469 73.30664.0434 1.16666-.1005 2.40799-.4257 3.61132-.3253 1.20334-.8304 2.37006-1.5079 3.38672-.6775 1.01667-1.5274 1.88357-2.541 2.49024-.5067.30333-1.0549.54221-1.6425.70117-.5879.15896-1.2162.23794-1.8829.22461-12-.2-23.9996.04052-35.9863-.13281-1.4-.06-2.9972-.26646-4.3789-.82813-.6908-.28083-1.3275-.65039-1.8594-1.13476-.5318-.48439-.9585-1.08422-1.2285-1.82422-.43-.91667-.6295-1.85922-.664-2.8086-.0347-.94937.097-1.90601.332-2.85351.47-1.895 1.3531-3.75164 2.1465-5.43164 6.1-11.39334 12.0965-22.84657 18.2265-34.22657s12.3921-22.68711 19.0254-33.78711c1.0867-1.52 2.1065-3.1521 3.2598-4.66211.5767-.75499 1.1871-1.47882 1.8555-2.14257.6683-.66375 1.395-1.26792 2.205-1.78125.5667-.26834 1.0788-.39357 1.5391-.40235z" fill="#fff" stroke-width="1.333333" transform="scale(.75000002)"/><path d="m1242.3601 12.52c1.15-.49 2.37-.71 3.65-.65 34.66.01 69.32 0 103.99 0 4.62.01 9.8.51 13.26 3.96 4.1 3.39 5.6 8.98 5.52 14.12-.79 84.68-1.59 169.37-2.29 254.06.16 3.06-.27 7 2.49 9.08 14.63.86 29.32 1.09 43.99 1.35 3.82 0 7.43 2.4 9.07 5.83 2.76 5.13 2.7 11.1 2.59 16.76-.05 13.22.08 26.44-.06 39.65 0 9.88-10.79 15.55-19.62 14.86-10.58.5-21.17.7-31.75 1.1-2.85.06-5.72 2.31-5.57 5.32-.35 20.7-.3 41.41-.72 62.1.07 8.53-7.94 14.83-15.87 15.67-28.71.05-57.41-.01-86.12.03-3.08-.01-6.42.32-9.09-1.5-6.69-4.12-9.37-12.71-8.87-20.21.19-18.99.41-37.99.42-56.98.43-3.66-2.4-7.37-6.26-6.94-50.7.36-101.4.94-152.11 1.14-5.75.49-9.98-4.1-12.73-8.56-2.44-4.21-4.41-8.77-5.35-13.55-.12-13.37-.06-26.75-.03-40.12.19-11.41 6.33-21.47 12.48-30.65 41.95-72.83 83.92-145.65 125.21-218.86 4.78-8.62 9.76-17.14 14.17-25.97 4.55-8.48 10.49-17.05 19.6-21.04m1.03 145.69c-2.76 2.46-4.55 5.72-6.26 8.94-20.83 37.08-42.05 73.94-63.15 110.87-2.05 4.09-3.98 9.24-1.72 13.64 1.67 3.09 5.6 3.36 8.72 3.48 18.67.41 37.36.28 56.03-.1 3.63.05 7.19-2.01 8.88-5.25 2.09-3.89 1.74-8.45 1.92-12.72.71-37.55.76-75.11.65-112.66-.11-2.62-1.34-8.98-5.07-6.2z" fill="#dc0101"/><path d="m398.36 13.53c47.54-.08 95.08 0 142.62-.04 7.4.08 15.74-.21 21.83 4.71 4.66 3.98 4.22 11.14 1.65 16.18-71.35 122.73-143.08 245.24-213.76 368.35-8.47 14.76-15.2 31.23-28.66 42.34-10.4 9.54-25.18 14.2-39.14 11.75-14.65-2.5-26.73-13.03-34.38-25.36-32.58-56.39-65.22-112.76-97.72-169.2-39.77-68.99-79.62-137.92-118.84-207.22-3.56-6.83-8.05-13.33-10.17-20.81-1.41-5.12-.65-11.23 3.6-14.82 4.84-4.05 11.33-5.77 17.54-5.92 45.01.03 90.02-.02 135.02.02 11.47-.15 23.06 5.48 29.25 15.28 25.37 44.63 50.28 89.53 76.33 133.76 1.88 3.16 4.5 6.58 8.43 7.04 5.11-.27 8.28-4.95 10.92-8.75 20.89-34.52 37.06-71.58 56.18-107.05 3.9-7.79 9.41-14.6 13.26-22.41 5.44-9.38 14.94-17 26.04-17.85z" fill="#dc0101"/><path d="m606.37 14.54c2.15-.68 4.39-1.05 6.65-1.05 53.66.02 107.32 0 160.97.01 4.72.02 9.49-.24 14.15.7 4.8 1.06 9.15 3.62 12.82 6.84 4.66 4.21 7.6 9.86 11.05 15.02 21.63 33.34 43.19 66.73 65.07 99.92 2.09 3.29 4.71 6.42 5.69 10.27.65 2.59-.11 5.59-2.4 7.13-5.78 3.58-12.87 3.35-19.41 3.14-45.99-.04-91.99-.01-137.98-.02-5.64.02-11.76-.46-16.72 2.73-6.85 4.33-10.15 12.9-9.77 20.78 0 84.86.06 169.72-.03 254.58.22 10.03-5.95 21.32-16.57 22.88-51.32.08-102.63 0-153.95.04-3.22.02-6.64-.22-9.39-2.08-4.01-2.51-6.28-6.94-7.45-11.4-3.08-9.39-1.9-19.37-2.04-29.07.13-72.63.38-145.27-.59-217.9.2-9.01-1.64-18.23.87-27.06 2.96-11.16 8.55-21.37 14.47-31.21 20.59-34.98 40.86-70.16 62.32-104.63 5.14-8.6 12.42-16.56 22.24-19.62z" fill="#24a401"/><path d="m1002.33 14.27c3.11-1.1 6.45-.72 9.69-.77 38.33.01 76.66 0 114.99 0 9.15.15 18.82-.75 27.4 3.1 4.99 2.06 8.78 6.84 9.32 12.26.85 7.92-2.64 15.49-6.73 22.04-70.74 124.36-141.71 248.59-211.89 373.26-6.32 11.15-15.17 21.25-26.62 27.31-8.37 4.42-17.99 6.34-27.42 5.85-10.63-1.19-19.55-8.27-26.39-16.06-6.64-7.4-11.08-16.33-16.09-24.83-41.76-71.91-83.42-143.89-125.3-215.73-2.29-3.99-4.99-7.78-6.64-12.09-1-3.16-1.17-7.26 1.58-9.62 4.54-3.97 11.01-4.34 16.77-4.05 46.32.31 92.64.36 138.97.57 4.33.01 8.73.01 12.97-1.03 9.9-2.38 18.43-9.11 24.03-17.49 23.17-40.45 46.99-80.56 69.33-121.49 5.21-8.8 11.98-17.82 22.03-21.23z" fill="#0000ac"/></svg>

<?xml version="1.0" encoding="UTF-8" standalone="no"?>
<svg
   xmlns:dc="http://purl.org/dc/elements/1.1/"
   xmlns:cc="http://creativecommons.org/ns#"
   xmlns:rdf="http://www.w3.org/1999/02/22-rdf-syntax-ns#"
   xmlns:svg="http://www.w3.org/2000/svg"
   xmlns="http://www.w3.org/2000/svg"
   xmlns:sodipodi="http://sodipodi.sourceforge.net/DTD/sodipodi-0.dtd"
   xmlns:inkscape="http://www.inkscape.org/namespaces/inkscape"
   width="1439pt"
   height="475pt"
   viewBox="0 0 1439 475"
   version="1.1"
   id="svg20"
   sodipodi:docname="VTV4.svg"
   inkscape:version="0.92.0 r15299">
  <metadata
     id="metadata26">
    <rdf:RDF>
      <cc:Work
         rdf:about="">
        <dc:format>image/svg+xml</dc:format>
        <dc:type
           rdf:resource="http://purl.org/dc/dcmitype/StillImage" />
      </cc:Work>
    </rdf:RDF>
  </metadata>
  <defs
     id="defs24" />
  <sodipodi:namedview
     pagecolor="#ffffff"
     bordercolor="#666666"
     borderopacity="1"
     objecttolerance="10"
     gridtolerance="10"
     guidetolerance="10"
     inkscape:pageopacity="0"
     inkscape:pageshadow="2"
     inkscape:window-width="1920"
     inkscape:window-height="1017"
     id="namedview22"
     showgrid="false"
     inkscape:zoom="0.59207783"
     inkscape:cx="1001.1746"
     inkscape:cy="255.78606"
     inkscape:window-x="-8"
     inkscape:window-y="-8"
     inkscape:window-maximized="1"
     inkscape:current-layer="svg20" />
  <path
     sodipodi:nodetypes="ccccccccccccccccccccccccccccccccccccccccccccccccccccccccc"
     style="opacity:1;fill:#ffffff;fill-opacity:1"
     inkscape:connector-curvature="0"
     id="path2"
     d="m 25.7,0 h 165.09 c 14.09,0.3 24.83,11.52 31.13,23.14 21.71,38.34 43.51,76.63 65.06,115.06 1.31,2.02 2.3,5.06 5.02,5.41 4.5,-1.39 4.95,-6.93 7.12,-10.46 C 312.58,108.67 326.07,84.2 339.86,59.9 348.05,45.2 356.25,30.49 365.14,16.19 372.83,5.31 386.61,0.4 399.52,0 h 74.57 c 19.96,1.03 39.98,0.16 59.96,0.62 81.68,0.2 163.36,0.59 245.03,0.42 11.84,0.68 25.34,1.89 34.07,10.86 27.74,41.98 55.72,83.85 82.49,126.47 0.8,1.13 1.87,1.44 3.21,0.92 19.1,-32.3 38.53,-64.43 57.6,-96.77 7.27,-11.87 13.5,-24.67 23.54,-34.55 3.82,-3.57 8.44,-7.32 14,-6.98 14.34,-0.15 28.68,-0.22 43.03,-0.27 15.3,-0.38 30.65,0.25 45.93,-0.72 h 72.28 c 8.99,0.37 19.36,2 25.12,9.72 6.03,8.28 5.14,19.33 2.87,28.77 -1.26,4.9 -2.8,9.81 -5.55,14.1 -68.78,120.27 -137.42,240.64 -206.51,360.73 -7.38,12.42 -13.89,25.49 -23.2,36.63 -9.49,11.38 -22.35,20.41 -37.02,23.43 -3.99,1 -8.11,1.26 -12.19,1.62 h -5.06 c -15.21,-0.42 -30.84,-5.88 -41.27,-17.3 -3.33,-3.26 -5.57,-7.37 -7.71,-11.44 -20.2,-36.76 -40.5,-73.46 -60.85,-110.14 -20.02,-35.93 -39.85,-71.97 -60.47,-107.56 -2.33,-3.82 -4.35,-8.2 -8.51,-10.36 0.82,22.58 0.45,45.19 0.84,67.78 0.25,45.69 0.57,91.38 0.1,137.07 0.03,12.13 -1.48,24.88 -8.31,35.23 -6.2,9.84 -17.44,15.86 -28.92,16.72 H 515.48 c -4.8,-0.19 -9.51,-2.13 -12.86,-5.59 -5.19,-5.32 -7.73,-12.58 -9.54,-19.63 -2.18,-8.42 -1.91,-17.16 -1.95,-25.78 -0.3,-53.33 -0.75,-106.66 -0.85,-159.99 -0.02,-15.32 -0.13,-30.64 0.18,-45.96 0.03,-3.62 0.49,-7.49 -1.44,-10.76 -3.24,1.24 -5.07,4.29 -6.75,7.12 -38.31,69.3 -76.58,138.61 -115.32,207.67 -8.29,15.48 -19.35,29.93 -34.18,39.66 -11.7,8.41 -26.09,12.69 -40.41,13.26 h -5.59 c -15.94,-0.58 -31.39,-7.89 -42,-19.78 -4.11,-4.47 -7.35,-9.66 -10.15,-15.03 C 159.07,308.4 83.4,176.67 7.97,44.81 3.83,37.64 0.38,29.74 0,21.36 V 19.14 C 0.54,14.83 2.26,10.57 5.49,7.58 10.92,2.48 18.51,0.73 25.7,0" />
  <path
     style="opacity:1;fill:#ffffff;fill-opacity:1;stroke-width:1.33333325"
     d="M 1658.6523 0 C 1646.5723 1.3866666 1636.173 8.7859637 1627.9062 17.279297 C 1617.8796 27.225963 1610.4528 39.385756 1603.7461 51.732422 C 1546.6928 152.25242 1488.8408 252.3192 1431.1875 352.50586 C 1425.3742 362.29253 1420.267 372.53294 1413.3203 381.59961 C 1401.1203 400.02628 1403.1328 422.94727 1403.4395 443.94727 C 1404.3728 463.25393 1403.3198 483.32089 1410.7598 501.57422 C 1414.0931 511.52089 1422.0528 521.26724 1433.1328 522.25391 C 1448.7061 523.33391 1464.3473 522.51932 1479.9473 522.97266 C 1527.0806 523.14599 1574.2124 522.73346 1621.3457 522.4668 C 1630.3724 521.36013 1636.9473 530.773 1637.0273 538.98633 C 1637.3873 556.18633 1636.9866 573.41328 1637.2266 590.61328 C 1637.5732 601.25328 1640.0659 611.97398 1645.1992 621.33398 C 1649.1592 628.08065 1656.306 633.09398 1664.2793 633.33398 L 1802.1875 633.33398 C 1812.6808 632.40065 1823.8665 629.84042 1831.5332 622.09375 C 1835.6665 618.06708 1837.4794 612.24021 1837.3594 606.54688 C 1837.4394 579.46687 1837.4394 552.37297 1837.3594 525.29297 C 1836.8394 522.1063 1840.2673 520.29372 1843.0273 520.40039 C 1857.1207 520.22706 1871.227 520.3857 1885.3203 520.3457 C 1889.6536 520.5457 1893.2809 517.72003 1896.8809 515.69336 C 1907.5209 509.16003 1917.2395 498.48065 1917.4395 485.33398 C 1917.5595 460.44065 1917.5068 435.54763 1917.4668 410.6543 C 1916.4535 397.34763 1909.9596 382.9475 1897.2129 377.1875 C 1886.7729 372.64083 1875.0931 374.66742 1864.0664 374.10742 C 1857.5464 373.65409 1850.5332 374.64089 1844.5332 371.57422 C 1840.7465 369.70755 1839.2008 365.34604 1839.4941 361.35938 C 1839.8275 254.23937 1840.2402 147.12 1840.5469 40 C 1840.1602 27.626667 1834.7866 14.745963 1824.6133 7.2792969 C 1816.9999 1.6526304 1807.3074 0.31999999 1798.1074 0 L 1658.6523 0 z M 1635.0586 285.06445 C 1635.5189 285.05568 1635.9283 285.16339 1636.293 285.36328 C 1637.0223 285.76307 1637.5716 286.52982 1637.9824 287.45898 C 1638.3933 288.38815 1638.6659 289.47979 1638.8438 290.53125 C 1639.0215 291.58271 1639.1028 292.5927 1639.1328 293.35938 C 1639.1595 317.79937 1638.9193 342.23935 1638.5859 366.66602 C 1638.6293 367.83268 1638.4854 369.07401 1638.1602 370.27734 C 1637.8349 371.48068 1637.3298 372.6474 1636.6523 373.66406 C 1635.9748 374.68073 1635.1249 375.54763 1634.1113 376.1543 C 1633.6046 376.45763 1633.0564 376.69651 1632.4688 376.85547 C 1631.8809 377.01443 1631.2526 377.09341 1630.5859 377.08008 C 1618.5859 376.88008 1606.5863 377.1206 1594.5996 376.94727 C 1593.1996 376.88727 1591.6024 376.68081 1590.2207 376.11914 C 1589.5299 375.83831 1588.8932 375.46875 1588.3613 374.98438 C 1587.8295 374.49999 1587.4028 373.90016 1587.1328 373.16016 C 1586.7028 372.24349 1586.5033 371.30094 1586.4688 370.35156 C 1586.4341 369.40219 1586.5658 368.44555 1586.8008 367.49805 C 1587.2708 365.60305 1588.1539 363.74641 1588.9473 362.06641 C 1595.0473 350.67307 1601.0438 339.21984 1607.1738 327.83984 C 1613.3038 316.45984 1619.5659 305.15273 1626.1992 294.05273 C 1627.2859 292.53273 1628.3057 290.90063 1629.459 289.39062 C 1630.0357 288.63563 1630.6461 287.9118 1631.3145 287.24805 C 1631.9828 286.5843 1632.7095 285.98013 1633.5195 285.4668 C 1634.0862 285.19846 1634.5983 285.07323 1635.0586 285.06445 z "
     transform="scale(0.75000002)"
     id="path4512" />
  <path
     style="opacity:1;fill:#dc0101"
     inkscape:connector-curvature="0"
     id="path9"
     d="m 1242.3601,12.52 c 1.15,-0.49 2.37,-0.71 3.65,-0.65 34.66,0.01 69.32,0 103.99,0 4.62,0.01 9.8,0.51 13.26,3.96 4.1,3.39 5.6,8.98 5.52,14.12 -0.79,84.68 -1.59,169.37 -2.29,254.06 0.16,3.06 -0.27,7 2.49,9.08 14.63,0.86 29.32,1.09 43.99,1.35 3.82,0 7.43,2.4 9.07,5.83 2.76,5.13 2.7,11.1 2.59,16.76 -0.05,13.22 0.08,26.44 -0.06,39.65 0,9.88 -10.79,15.55 -19.62,14.86 -10.58,0.5 -21.17,0.7 -31.75,1.1 -2.85,0.06 -5.72,2.31 -5.57,5.32 -0.35,20.7 -0.3,41.41 -0.72,62.1 0.07,8.53 -7.94,14.83 -15.87,15.67 -28.71,0.05 -57.41,-0.01 -86.12,0.03 -3.08,-0.01 -6.42,0.32 -9.09,-1.5 -6.69,-4.12 -9.37,-12.71 -8.87,-20.21 0.19,-18.99 0.41,-37.99 0.42,-56.98 0.43,-3.66 -2.4,-7.37 -6.26,-6.94 -50.7,0.36 -101.4,0.94 -152.11,1.14 -5.75,0.49 -9.98,-4.1 -12.73,-8.56 -2.44,-4.21 -4.41,-8.77 -5.35,-13.55 -0.12,-13.37 -0.06,-26.75 -0.03,-40.12 0.19,-11.41 6.33,-21.47 12.48,-30.65 41.95,-72.83 83.92,-145.65 125.21,-218.86 4.78,-8.62 9.76,-17.14 14.17,-25.97 4.55,-8.48 10.49,-17.05 19.6,-21.04 m 1.03,145.69 c -2.76,2.46 -4.55,5.72 -6.26,8.94 -20.83,37.08 -42.05,73.94 -63.15,110.87 -2.05,4.09 -3.98,9.24 -1.72,13.64 1.67,3.09 5.6,3.36 8.72,3.48 18.67,0.41 37.36,0.28 56.03,-0.1 3.63,0.05 7.19,-2.01 8.88,-5.25 2.09,-3.89 1.74,-8.45 1.92,-12.72 0.71,-37.55 0.76,-75.11 0.65,-112.66 -0.11,-2.62 -1.34,-8.98 -5.07,-6.2 z" />
  <path
     style="opacity:1;fill:#dc0101"
     inkscape:connector-curvature="0"
     id="path11"
     d="m 398.36,13.53 c 47.54,-0.08 95.08,0 142.62,-0.04 7.4,0.08 15.74,-0.21 21.83,4.71 4.66,3.98 4.22,11.14 1.65,16.18 -71.35,122.73 -143.08,245.24 -213.76,368.35 -8.47,14.76 -15.2,31.23 -28.66,42.34 -10.4,9.54 -25.18,14.2 -39.14,11.75 -14.65,-2.5 -26.73,-13.03 -34.38,-25.36 C 215.94,375.07 183.3,318.7 150.8,262.26 111.03,193.27 71.18,124.34 31.96,55.04 28.4,48.21 23.91,41.71 21.79,34.23 20.38,29.11 21.14,23 25.39,19.41 c 4.84,-4.05 11.33,-5.77 17.54,-5.92 45.01,0.03 90.02,-0.02 135.02,0.02 11.47,-0.15 23.06,5.48 29.25,15.28 25.37,44.63 50.28,89.53 76.33,133.76 1.88,3.16 4.5,6.58 8.43,7.04 5.11,-0.27 8.28,-4.95 10.92,-8.75 20.89,-34.52 37.06,-71.58 56.18,-107.05 3.9,-7.79 9.41,-14.6 13.26,-22.41 5.44,-9.38 14.94,-17 26.04,-17.85 z" />
  <g
     id="#24a401ff">
    <path
       fill="#24a401"
       opacity="1.00"
       d=" M 606.37 14.54 C 608.52 13.86 610.76 13.49 613.02 13.49 C 666.68 13.51 720.34 13.49 773.99 13.50 C 778.71 13.52 783.48 13.26 788.14 14.20 C 792.94 15.26 797.29 17.82 800.96 21.04 C 805.62 25.25 808.56 30.90 812.01 36.06 C 833.64 69.40 855.20 102.79 877.08 135.98 C 879.17 139.27 881.79 142.40 882.77 146.25 C 883.42 148.84 882.66 151.84 880.37 153.38 C 874.59 156.96 867.50 156.73 860.96 156.52 C 814.97 156.48 768.97 156.51 722.98 156.50 C 717.34 156.52 711.22 156.04 706.26 159.23 C 699.41 163.56 696.11 172.13 696.49 180.01 C 696.49 264.87 696.55 349.73 696.46 434.59 C 696.68 444.62 690.51 455.91 679.89 457.47 C 628.57 457.55 577.26 457.47 525.94 457.51 C 522.72 457.53 519.30 457.29 516.55 455.43 C 512.54 452.92 510.27 448.49 509.10 444.03 C 506.02 434.64 507.20 424.66 507.06 414.96 C 507.19 342.33 507.44 269.69 506.47 197.06 C 506.67 188.05 504.83 178.83 507.34 170.00 C 510.30 158.84 515.89 148.63 521.81 138.79 C 542.40 103.81 562.67 68.63 584.13 34.16 C 589.27 25.56 596.55 17.60 606.37 14.54 Z"
       id="path14" />
  </g>
  <g
     id="#0000acff">
    <path
       fill="#0000ac"
       opacity="1.00"
       d=" M 1002.33 14.27 C 1005.44 13.17 1008.78 13.55 1012.02 13.50 C 1050.35 13.51 1088.68 13.50 1127.01 13.50 C 1136.16 13.65 1145.83 12.75 1154.41 16.60 C 1159.40 18.66 1163.19 23.44 1163.73 28.86 C 1164.58 36.78 1161.09 44.35 1157.00 50.90 C 1086.26 175.26 1015.29 299.49 945.11 424.16 C 938.79 435.31 929.94 445.41 918.49 451.47 C 910.12 455.89 900.50 457.81 891.07 457.32 C 880.44 456.13 871.52 449.05 864.68 441.26 C 858.04 433.86 853.60 424.93 848.59 416.43 C 806.83 344.52 765.17 272.54 723.29 200.70 C 721.00 196.71 718.30 192.92 716.65 188.61 C 715.65 185.45 715.48 181.35 718.23 178.99 C 722.77 175.02 729.24 174.65 735.00 174.94 C 781.32 175.25 827.64 175.30 873.97 175.51 C 878.30 175.52 882.70 175.52 886.94 174.48 C 896.84 172.10 905.37 165.37 910.97 156.99 C 934.14 116.54 957.96 76.43 980.30 35.50 C 985.51 26.70 992.28 17.68 1002.33 14.27 Z"
       id="path17" />
  </g>
</svg>
